packages/merlin-www-assets/imports/houseandgarden/icons/nav-share-facebook.svg

<svg viewBox="0 0 20 20" xmlns="http://www.w3.org/2000/svg"><path d="m14.41 6.64-.23 3h-3.07v10.36h-3.87v-10.36h-2.06v-3h2.06v-2a5.37 5.37 0 0 1 .67-3.1 3.68 3.68 0 0 1 3.2-1.54 13 13 0 0 1 3.71.37l-.52 3.09a7 7 0 0 0 -1.67-.25c-.8 0-1.52.29-1.52 1.09v2.34z"/></svg>

<svg xmlns="http://www.w3.org/2000/svg" viewBox="0 0 20 20"><title>nav-share-facebook</title><path d="M14.41,6.64l-.23,3H11.11V20H7.24V9.64H5.18v-3H7.24v-2a5.37,5.37,0,0,1,.67-3.1A3.68,3.68,0,0,1,11.11,0a13,13,0,0,1,3.71.37L14.3,3.46a7,7,0,0,0-1.67-.25c-.8,0-1.52.29-1.52,1.09V6.64Z"/></svg>
